X:1
T:The Nutcracker
T:Танец феи Драже 
T:П.И. Чайковский P.I.Tchaikovsky
T:(Щелкунчик)
T:Dance of the Sugar Plum Fairy
T:(The Nutcracker)
T:транскрипция М.Плетнева transcription M.Pletnev
C:Pyotr Ilyich Tchaikovsky
%%score { ( 1 8 ) | ( 2 5 6 ) | ( 3 4 7 ) }
L:1/8
Q:1/8=115
M:2/4
K:G
V:1 treble nm="Piano" snm="Pno."
V:8 treble 
V:2 treble 
V:5 treble 
V:6 treble 
V:3 bass 
V:4 bass 
V:7 bass 
V:1
"^Andante ma non troppo\n" z4 | z4 | z4 | z4 | z4 | z4 | z4 | z4 | z4 | z4 | z4 | z4 | z4 | z4 | %14
 z4 | z4 | z4 | z4 | x4 | x4 | z4 | z4 | %22
!8va(! [eg]/[^c'^c'']/!<(![fa]/[^d'^d'']/ [gb]/[e'e'']/[ad']/[f'f'']/!<)! | %23
 [be']/[g'g'']/!>(![g^c']/[e'e'']/ [fb]/[^d'^d'']/!8va)! z!>)! | z4 | z4 | %26
!8va(! [eg]/[^c'^c'']/"_cresc."[fa]/[^d'^d'']/ [gb]/[e'e'']/ z | %27
 [fa]/[^d'^d'']/[gb]/[e'e'']/ [ac']/[f'f'']/ z | %28
 [gb^c']/[e'e'']/[a^d']/[f'f'']/ [be']/[g'g'']/ z/ [g'g'']/!8va)! | %29
 [=cef]/[aa']/ z/ [ae'f']/!f! [b^d'b'] x | x4 | x4 | x4 | %33
[Q:1/8=90] x4[Q:1/8=70][Q:1/8=60][Q:1/8=50][Q:1/8=115] | %34
 z!pp!!8va(! .[b'g'']/.[g'e'']/ .[b'g''].[a'c''f''] | %35
 .[f'a'^d''].[g'^a'e''] .[=f'^g'=d'']/.[f'g'd'']/.[f'g'd''] | %36
 .[e'^g'^c'']/.[e'g'c'']/.[e'g'c''] .[^d'f'=c'']/.[d'f'c'']/.[d'f'c''] | %37
 .[e'b']/.[g'e'']/.[e'c'']/.[a'e'']/ .[e'b'] z | z .[c'g']/.[ge']/ .[c'g'].[c'^d'f'] | %39
 .[^d'f'c''].[e'g'b'] .[^a'e''g'']/.[a'e''g'']/.[a'e''g''] | %40
 .[^g'd''f'']/.[g'd''f'']/.[g'd''f''] .[^a'^c''e'']/.[a'c''e'']/.[a'c''e''] | %41
 .[b'^d'']/.[f'f'']/.[^a'e'']/.[f'f'']/ .[b'd''] z | z .[b'g'']/.[g'e'']/ .[b'g''].[a'c''f''] | %43
 .[f'a'^d''].[g'^a'e''] .[=f'^g'=d'']/.[f'g'd'']/.[f'g'd''] | %44
 .[e'=g'^c'']/.[e'g'c'']/.[e'g'c''] .[^d'f'=c'']/.[d'f'c'']/.[d'f'c''] | %45
 .[e'b']/.[g'e'']/.[e'c'']/.[a'e'']/ .[e'b'] z | z .[^a'e'']/.[e'^c'']/ .[a'e''].[^d'f'^d''] | %47
 z .[^g'd'']/.[d'b']/ .[g'd''].[^c'e'^c''] | z .[f'=c'']/.[c'a']/ [f'c''].b' | %49
 .[bd'] (b/4^d'/4f'/4b'/4!8va)! .[ege']) z |] z4 | %51
V:2
!pp! z .[G,B,E] z .[A,CF] | z .[^A,^CG] z .[=A,=C^D] | z .[bg']/.[ge']/ .[bg'].[ac'f'] | %3
 .[fa^d'].[g^ae'] .[=f^g=d']/.[fgd']/.[fgd'] | .[eg^c']/.[egc']/.[egc'] .[^df=c']/.[dfc']/.[dfc'] | %5
 .[eb]/.[ge']/.[ec']/.[ae']/ .[eb] z | z .[cg]/.[Ge]/ .[cg].[c^df] | %7
 .[^dfc'].[egb] .[^ae'g']/.[ae'g']/.[ae'g'] | %8
 .[^gd'f']/.[gd'f']/.[gd'f'] .[^a^c'e']/.[ac'e']/[ac'e'] | %9
 .[b^d']/.[ff']/.[^ae']/.[ff']/ .[bd'] z | z .[bg']/.[ge']/ .[bg'].[ac'f'] | %11
 .[fa^d'].[g^ae'] .[=f^g=d']/.[fgd']/.[fgd'] | .[eg^c']/.[egc']/.[egc'] .[^df=c']/.[dfc']/.[dfc'] | %13
 .[eb]/.[ge']/.[ec']/.[ae']/ .[eb] (G/4F/4E/4D/4 | ^C3) z | [D^G]3 z | [=CF]3 (d/4c/4B/4A/4 | %17
!>(! .[B^d]) ([da]/4[f^d']/4[af']/4[d'b']/4!>)! .[ge']) (([Bb] |!<(! (((([Bb]4))!<)! | %19
!>(! [Bb]3))))!p! F,!>)! | x (!>![^D^d][Ee]) x | x (!>![^C^c][=D=d]) (([Bb] | (([Bb]4)) | %23
 [Bb]3))!p! F, | x (!>![^D^d][Ee]) x | x (!>![^C^c][=D=d]) (.[Bb] | [Bb]3/2) x/ x (([Bb] | %27
 [Bb]3)) (([B,B] | [B,B]3)) z | x [B,B] x (=D/8F/8A/8c/8[I:staff -1]=d/8f/8a/8c'/8) | %30
[I:staff +1] (^D/8F/8A/8B/8[I:staff -1]^d/8f/8a/8b/8)[I:staff +1] (=D/8F/8A/8c/8[I:staff -1]=d/8f/8a/8c'/8)[I:staff +1] (^D/8F/8A/8B/8[I:staff -1]^d/8f/8a/8b/8)[I:staff +1] (=F/8A/8c/8e/8[I:staff -1]=f/8a/8c'/8e'/8) | %31
[I:staff +1] (^F/8A/8B/8^d/8[I:staff -1]^f/8a/8b/8d'/8)[I:staff +1] (=F/8A/8c/8e/8[I:staff -1]=f/8a/8c'/8e'/8)[I:staff +1] (^F/8A/8B/8d/8[I:staff -1]^f/8a/8b/8d'/8)[I:staff +1] (A/8c/8d/8g/8[I:staff -1]a/8c'/8d'/8g'/8) | %32
[I:staff +1] (6:4:6(B/4^d/4f/4[I:staff -1]b/4^d'/4f'/4)[I:staff +1] (A/8c/8d/8g/8[I:staff -1]a/8c'/8d'/8g'/8)[I:staff +1] (6:4:6(B/4d/4f/4[I:staff -1]b/4d'/4f'/4)[I:staff +1] (=d/8f/8a/8c'/8[I:staff -1]=d'/8f'/8a'/8c''/8) | %33
!8va(![I:staff +1] (^d'/8f'/8a'/8b'/8[I:staff -1]^d'/8f'/8a'/8b'/8)[I:staff +1] (=d'/8f'/8a'/8c''/8[I:staff -1]=d'/8f'/8a'/8c''/8)[I:staff +1] (6:4:6(^d'/8f'/8a'/8b'/8^d''/8!>(![I:staff -1]f'/8(6:4:6a'/8b'/8^d''/8f''/8a''/8!8va)!!breath!!fermata!b'/8)!p![I:staff +1] z!>)! | %34
 E!ppp! .[Beg]/.[Beg]/ x .[cea]/.[cea]/ | x .[^ce^a]/.[cea]/ x .[d^gb]/.[dgb]/ | %36
 x .[^c=g^a]/.[cga]/ x .[=cf=a]/.[cfa]/ | .[EBg].[Acf] .[EBg]/.[Beg]/ (E/4(D/4C/4B,/4 | %38
[I:staff +1] ^A,))[I:staff -1] .[Gce]/.[Gce]/ x .[^DFc]/.[DFc]/ | %39
 x .[GBe]/.[GBe]/ x .[^Aeg]/.[Aeg]/ | x .[df^g]/.[dfg]/ x .[^cf^a]/.[cfa]/ | %41
 .[B,FB].[CF^A] .[B,FB]/.[B,^DF]/ (B,/4A,/4G,/4F,/4 | E,) .[Beg]/.[Beg]/ x .[cea]/.[cea]/ | %43
 x .[^ce^a]/.[cea]/ x .[d^gb]/.[dgb]/ | x .[^c=g^a]/.[cga]/ x .[=cf=a]/.[cfa]/ | %45
 .[EBg].[Acf] .[EBg]/.[Beg]/!p! (G/4F/4E/4D/4 | ^C3) z | [=D^G]3 z | [=CF]3 z | %49
 (g/4a/4g/4d/4 [B^d]/4a/4g/4f/4 .[eg]) !arpeggio!.[EGBe] |] z4 | %51
V:3
 .[E,,E,] z .[E,,E,] z | .[E,,E,] z .[E,,E,] z | .[E,,E,].[G,B,E] .[E,,E,].[A,CF] | %3
 .[E,,E,].[^A,^CG] .[E,,E,][K:treble].[D^GB] |[K:bass] .[E,,E,].[^CG^A] .[E,,E,].[=CF=A] | %5
 .[E,B,G].[A,CF] .[E,B,G] z | .^A,,.[CE] .=A,,.[C^D] | .G,,.[B,E] .F,,.[^A,E] | %8
 .F,,.[B,D] .F,,.[^CE] | .[B,,B,].[C,^A,] .[B,,B,] z | .E,,.[G,B,E] .E,,.[A,C] | %11
 .E,,.[^A,^C] .E,,.[B,D] | .E,,.[^A,^C] .E,,.[=A,=C] | .[B,G].[A,CF] .[E,B,G] z | [F,^A,]3 B, | %15
 E,3 A, | D,3 [G,D] |[K:treble] G/^d/[B,FA]/d/ [EGe][K:bass]!ped! (([B,,B,] | (([B,,B,]4)) | %19
 [B,,B,]3)) (([^D,,B,,]!ped-up! | [E,,B,,])) x x (([^C,,A,,] | [D,,A,,])) x x!ped! (([B,,B,] | %22
 (([B,,B,]4)) | [B,,B,]3)) (([^D,,B,,]!ped-up! | [E,,B,,])) x x (([^C,,A,,] | %25
 [D,,A,,])) x x (([B,,B,] |!ped! [B,,B,]3)) (([B,,B,]!ped-up! | %27
!ped! [B,,B,]3/2)) x x/ (([B,,,B,,]!ped-up! |!ped! [B,,,B,,]3/2)) x x/ (([B,,B,]!ped-up! | %29
!ped! [B,,B,])) x x2!ped!!ped-up! | z4 | z4 | z4 | z2 z (B,,/4A,,/4G,,/4F,,/4 | %34
 (E,/)E,,/) x .[E,E]/.[E,E]/ x | .[E,E]/.[E,E]/ x .[E,E]/.[E,E]/ x | %36
 .[E,E]/.[E,E]/ x .[E,E]/.[E,E]/ x | x4 | .^A,,/.A,,/ x .[=A,,=A,]/.[A,,A,]/ x | %39
 .[G,,G,]/.[G,,G,]/ x .[F,,F,]/.[F,,F,]/ x | .[F,F]/.[F,F]/ x .[F,F]/.[F,F]/ x | z4 | %42
 .E,,/.E,,/ x .[E,E]/.[E,E]/ x | .[E,E]/.[E,E]/ x .[E,E]/.[E,E]/ x | %44
 .[E,E]/.[E,E]/ x .[E,E]/.[E,E]/ x | z4 | F,3 B, | E,3 A, | D,3 [G,D] | %49
 z2 z !arpeggio!.[E,,B,,G,] |] z4 | %51
V:4
 x4 | x4 | x4 | x3[K:treble] x |[K:bass] x4 | x3 (E/4D/4C/4B,/4 | ^A,2) =A,2 | G,2 (F,2 | (F,4) | %9
 F,3) (B,/4=A,/4G,/4F,/4 | (E,4) | (E,4) | (E,4) | E,) x3 | x3 (F/4E/4^D/4^C/4 | %15
 B,3) (E/4D/4^C/4B,/4 | A,3) x |[K:treble] x3[K:bass] x | x4 | x4 | %20
 (3(A,/.G,/).G,/ (3.G,/.G,/.G,/ (3.G,/.G,/.G,/ (3.G,/.B,/.A,/ | %21
 (3G,/.F,/.F,/ (3.F,/.F,/.F,/ (3.F,/.F,/.F,/ x | x4 | x4 | %24
 (3(A,/.G,/).G,/ (3.G,/.G,/.G,/ (3.G,/.G,/.G,/ (3.G,/.B,/.A,/ | %25
 (3(G,/.F,/).F,/ (3.F,/.F,/.F,/ (3.F,/.F,/.F,/ x | x4 | x4 | x4 | x4 | x4 | x4 | x4 | x4 | x4 | %35
 x4 | x4 | x4 | x4 | x4 | x4 | x4 | x4 | x4 | x4 | x4 | ^A,3 (F/4E/4^D/4^C/4 | %47
 B,3) (E/4D/4^C/4B,/4 | A,3) x | x4 |] x4 | %51
V:5
 x4 | x4 | x4 | x4 | x4 | x4 | x4 | x4 | x4 | x4 | x4 | x4 | x4 | x4 | %14
 z .[^ae']/.[e^c']/ .[ae'].[^df^d'] | z .[^gd']/.[db]/ .[gd'].[^ce^c'] | %16
 z .[f=c']/.[ca]/ .[fc'].b | x4 | %18
 [EG^c]/[I:staff -1][eg^c']/[I:staff +1][FA^d]/[I:staff -1][fa^d']/[I:staff +1] [GBe]/[I:staff -1][gbe']/[I:staff +1][Adf]/[I:staff -1][ad'f']/ | %19
[I:staff +1] [Beg]/[I:staff -1][be'g']/[I:staff +1][G^ce]/[I:staff -1][g^c'e']/[I:staff +1] [FB^d]/[I:staff -1][fb^d']/[I:staff +1] (3.B,/.^C/.B,/ | %20
 x4 | x4 | .[EG^c].[FA^d] .[GBe].[Adf] | .[Beg].[G^ce] .[FB^d] (3B,/^C/B,/ | x4 | x4 | %26
 .[EG^c].[FA^d] .[GBe] x | .[FA^d].[GBe] .[Acf] x | .[GB^ce].[A^df] .[Beg] x | %29
 .[=cefa] z .[B^dfb] x | x4 | x4 | x4 |!8va(! x2 x!8va)! B/4A/4G/4F/4 | x4 | x4 | x4 | x4 | x4 | %39
 x4 | x4 | x4 | x4 | x4 | x4 | x4 | z3/4 F/4 (^c/4e/4f/4^a/4 ^c') x | %47
 z3/4 (E/4 B/4d/4e/4^g/4 b) x | z3/4 (D/4 A/4c/4d/4f/4 a) x | x4 |] x4 | %51
V:6
 x4 | x4 | x4 | x4 | x4 | x4 | x4 | x4 | x4 | x4 | x4 | x4 | x4 | x4 | z .[F^c]/.f/ .f' z | %15
 z .[EB]/.e/ .e' x | z .[DA]/.d/ .d' x | x4 | x4 | x4 | x4 | x4 | x4 | x4 | x4 | x4 | x4 | x4 | %28
 x4 | x4 | x4 | x4 | x4 |!8va(! x35/12!8va)! x13/12 | x4 | x4 | x4 | x4 | x4 | x4 | x4 | x4 | x4 | %43
 x4 | x4 | x4 | x4 | x4 | x4 | x4 |] x4 | %51
V:7
 x4 | x4 | x4 | x3[K:treble] x |[K:bass] x4 | x4 | x4 | x4 | x4 | x4 | x4 | x4 | x4 | x4 | x4 | %15
 x4 | x4 |[K:treble] x3[K:bass] x | x4 | x4 | E, x x E, | D, x x2 | x4 | x4 | E, x x E, | D, x x2 | %26
 x4 | x4 | x4 | x4 | x4 | x4 | x4 | x4 | x4 | x4 | x4 | x4 | x4 | x4 | x4 | x4 | x4 | x4 | x4 | %45
 x4 | x4 | x4 | x4 | x4 |] x4 | %51
V:8
 x4 | x4 | x4 | x4 | x4 | x4 | x4 | x4 | x4 | x4 | x4 | x4 | x4 | x4 | x4 | x4 | x4 | x4 | x4 | %19
 x4 | x4 | x4 |!8va(! x4 | x3!8va)! x | x4 | x4 |!8va(! x4 | x4 | x4!8va)! | x4 | x4 | x4 | x4 | %33
 x4 | x!8va(! x3 | x4 | x4 | x4 | x4 | x4 | x4 | x4 | x4 | x4 | x4 | x4 | x4 | x4 | %48
 x x x d'/4c'/4b/4a/4 | x2!8va)! x2 |] x4 | %51

